packages/symbols/svgs/solid/astronomy-solid.svg

<svg width="16" height="16" viewBox="0 0 16 16" fill="none" xmlns="http://www.w3.org/2000/svg">
<g clip-path="url(#clip0_1280_4637)">
<path fill-rule="evenodd" clip-rule="evenodd" d="M15.247 1.15299L15.971 4.06899C16.0027 4.19651 16.0089 4.32902 15.9894 4.45896C15.9699 4.5889 15.9249 4.71372 15.8571 4.82628C15.7893 4.93884 15.7 5.03693 15.5943 5.11496C15.4886 5.19298 15.3685 5.2494 15.241 5.28099L10.886 6.36199C10.9592 6.56683 10.9977 6.78246 11 6.99999C10.9977 7.35196 10.9021 7.69702 10.723 7.99999L13.872 13.504C14.0034 13.7342 14.0381 14.0072 13.9683 14.263C13.8986 14.5188 13.7301 14.7364 13.5 14.868C13.348 14.9556 13.1754 15.0012 13 15C12.8241 15.0003 12.6512 14.9543 12.4988 14.8665C12.3464 14.7787 12.2199 14.6523 12.132 14.5L8.99096 8.99999C8.51815 8.99655 8.06186 8.82571 7.70305 8.51779C7.34424 8.20988 7.10612 7.7848 7.03096 7.31799L4.04096 8.06099C3.96202 8.07999 3.88114 8.08972 3.79996 8.08999C3.57608 8.09077 3.35841 8.0164 3.18182 7.87878C3.00522 7.74117 2.87991 7.54828 2.82596 7.33099V7.31499L1.48396 7.64799C1.40518 7.66793 1.32422 7.678 1.24296 7.67799C1.01959 7.6781 0.802618 7.60342 0.626634 7.46586C0.450651 7.3283 0.32579 7.13578 0.271958 6.91899L0.0389579 5.97699C0.00724645 5.84948 0.000976736 5.71696 0.0205072 5.58702C0.0400376 5.45708 0.0849853 5.33227 0.152781 5.21971C0.220576 5.10715 0.309891 5.00905 0.415618 4.93103C0.521346 4.85301 0.641413 4.79659 0.768958 4.76499L2.11096 4.42899L2.10596 4.41199C2.07425 4.28448 2.06798 4.15196 2.08751 4.02202C2.10704 3.89208 2.15199 3.76727 2.21978 3.65471C2.28758 3.54215 2.37689 3.44405 2.48262 3.36603C2.58835 3.28801 2.70841 3.23159 2.83596 3.19999L14.036 0.423993C14.2932 0.360217 14.5653 0.401175 14.7923 0.537868C15.0194 0.67456 15.1829 0.895806 15.247 1.15299ZM7.12979 9.5062C7.26027 9.52337 7.38609 9.56612 7.50002 9.632C7.61426 9.69742 7.71446 9.78474 7.79487 9.88897C7.87528 9.9932 7.93432 10.1123 7.9686 10.2394C8.00288 10.3665 8.01173 10.4991 7.99465 10.6296C7.97756 10.7601 7.93486 10.886 7.86902 11L5.86902 14.5C5.781 14.6525 5.65429 14.779 5.50171 14.8668C5.34912 14.9546 5.17606 15.0005 5.00002 15C4.82459 15.0012 4.65201 14.9556 4.50002 14.868C4.38586 14.8025 4.28576 14.7151 4.20545 14.6109C4.12514 14.5066 4.0662 14.3875 4.03201 14.2604C3.99782 14.1333 3.98906 14.0007 4.00622 13.8702C4.02338 13.7397 4.06613 13.6139 4.13202 13.5L6.13202 10C6.19752 9.88585 6.2849 9.78575 6.38917 9.70543C6.49343 9.62512 6.61253 9.56618 6.73962 9.532C6.86671 9.49781 6.9993 9.48904 7.12979 9.5062Z" fill="black"/>
</g>
<defs>
<clipPath id="clip0_1280_4637">
<rect width="16" height="16" fill="white"/>
</clipPath>
</defs>
</svg>

<svg width="16" height="16" viewBox="0 0 16 16" xmlns="http://www.w3.org/2000/svg"><g clip-path="url(#a)"><path fill-rule="evenodd" clip-rule="evenodd" d="m15.247 1.153.724 2.916a1 1 0 0 1-.73 1.212l-4.355 1.081c.073.205.112.42.114.638a1.99 1.99 0 0 1-.277 1l3.149 5.504A1 1 0 0 1 13 15a1 1 0 0 1-.868-.5L8.991 9a2 2 0 0 1-1.96-1.682l-2.99.743a1 1 0 0 1-1.215-.73v-.016l-1.342.333a1 1 0 0 1-1.212-.729l-.233-.942a1 1 0 0 1 .73-1.212l1.342-.336-.005-.017a1 1 0 0 1 .73-1.212l11.2-2.776a1 1 0 0 1 1.211.729ZM7.13 9.506a1 1 0 0 1 .665.383A1 1 0 0 1 7.869 11l-2 3.5A1 1 0 0 1 5 15a.988.988 0 0 1-.795-.39 1 1 0 0 1-.073-1.11l2-3.5a1 1 0 0 1 .998-.494Z"/></g><defs><clipPath id="a"><path fill="#fff" d="M0 0h16v16H0z"/></clipPath></defs></svg>
